public/library/ton-connect-text-light.svg

<svg width="668" height="237" viewBox="0 0 668 237" fill="none" xmlns="http://www.w3.org/2000/svg">
<path d="M118.204 0.000194514C183.486 0.000194514 236.408 52.9223 236.408 118.204C236.408 183.487 183.486 236.408 118.204 236.408C52.9216 236.408 0.000184007 183.486 0 118.204C0 52.9224 52.9215 0.000354089 118.204 0.000194514ZM74.1011 62.1964C57.6799 62.1964 47.268 79.9119 55.5308 94.2346L109.964 188.582C113.619 194.922 122.781 194.922 126.436 188.582L180.88 94.2346C189.132 79.9342 178.72 62.1965 162.31 62.1964H74.1011ZM162.288 78.8411C166.031 78.8411 168.234 82.812 166.45 85.9074L137.856 137.091L137.851 137.099L126.506 159.046V78.8411H162.288ZM109.872 78.8516V159.024L98.5376 137.087L98.5334 137.08L69.9294 85.9214L69.8468 85.7724C68.2134 82.6996 70.405 78.8516 74.0899 78.8516H109.872Z" fill="#4DB8FF"/>
<path d="M639.524 146.751V62.9139H668V188.849H636.565L573.696 99.0752V188.849H545.034V62.9139H581.277L639.524 146.751Z" fill="black"/>
<path d="M456.407 191.686C414.432 191.686 384.107 163.081 384.107 126.74C384.107 90.3983 414.432 61.7931 456.407 61.7931C498.382 61.7931 528.707 90.5782 528.707 126.74C528.707 162.901 498.382 191.686 456.407 191.686ZM456.407 167.219C481 167.219 497.272 149.408 497.272 126.74C497.272 104.071 481 86.2605 456.407 86.2605C431.814 86.2605 415.542 104.071 415.542 126.74C415.542 149.408 431.814 167.219 456.407 167.219Z" fill="black"/>
<path d="M384.269 63.5978V85.7264H342.11V189.533H312.339V85.7264H270.179V63.5978H384.269Z" fill="black"/>
</svg>

<svg xmlns="http://www.w3.org/2000/svg" width="668" height="237" fill="none" viewBox="0 0 668 237"><path fill="#4db8ff" d="M118.204 0c65.282 0 118.204 52.922 118.204 118.204 0 65.283-52.922 118.204-118.204 118.204S0 183.486 0 118.204 52.922 0 118.204 0M74.101 62.196c-16.421 0-26.833 17.716-18.57 32.039l54.433 94.347c3.655 6.34 12.817 6.34 16.472 0l54.444-94.347c8.252-14.3-2.16-32.038-18.57-32.039zm88.187 16.645c3.743 0 5.946 3.971 4.162 7.066l-28.594 51.184-.005.008-11.345 21.947V78.841zm-52.416.01v80.173l-11.334-21.937-.005-.007L69.93 85.921l-.082-.149c-1.634-3.072.558-6.92 4.243-6.92z"/><path fill="#000" d="M639.524 146.751V62.914H668v125.935h-31.435l-62.869-89.774v89.774h-28.662V62.914h36.243zM456.407 191.686c-41.975 0-72.3-28.605-72.3-64.946 0-36.342 30.325-64.947 72.3-64.947s72.3 28.785 72.3 64.947c0 36.161-30.325 64.946-72.3 64.946m0-24.467c24.593 0 40.865-17.811 40.865-40.479 0-22.669-16.272-40.48-40.865-40.48s-40.865 17.811-40.865 40.48 16.272 40.479 40.865 40.479M384.269 63.598v22.128H342.11v103.807h-29.771V85.726h-42.16V63.598z"/></svg>
